X:1
T:Mustang Gray
M:2/4
L:1/4
K:Eb
 z B,-| E- E| E3/4 E/4 E/2c/2| B/2 G d/2| e e| f e| c3/2 d/2| e e|\
 f e| c/2c/2 G3/4 E/4| F F| G E| C3/2 z/2|
